X: 293
M: 6/8
L: 1/8
K: Bb
V: 1
f |\
d>cB b>ag | fdB F2E | DFB d/e/fd | ccc c2f |\
d>cB b>ag | fdB F2E | DFB edc | BBB B2 :||:
c |\
bfd g/a/bg | fdB G2B | FDF edc | BBB B2 |]
V: 2 clef=bass middle=d
f |\
b2B d2e | d3- d2c | B3  b3  | f3 a3 |\
b2B d2e | d3- d2c | B2d f2F | b3 B2 :||:
z |\
f3 a3 | b3 d2e | d3 D3 | G2g f2e |\
d3 e3 | B3 e3 | f3 F3 | B3 b2 |]

